svgs/city-11.svg

<svg version="1.1" xmlns="http://www.w3.org/2000/svg" xmlns:xlink="http://www.w3.org/1999/xlink"
	 width="11px" height="11px" viewBox="0 0 11 11">
<path d="M9.7514,3h-0.75V1.25c0-0.13807-0.11193-0.25-0.25-0.25C8.75137,1,8.75133,1,8.7513,1h-0.5
	c-0.13807,0-0.25,0.11193-0.25,0.25V3h-0.75c-0.13807,0-0.25,0.11193-0.25,0.25v3.751H5.2518c-0.13862,0-0.251,0.11238-0.251,0.251
	v2.5c0.0011,0.13784,0.11315,0.249,0.251,0.249h4.5006c0.13768-0.00055,0.249-0.11232,0.249-0.25V3.25
	C10.0014,3.11193,9.88947,3,9.7514,3z M6.0009,8.0012h1v1h-1V8.0012z M9.0009,9.0012h-1v-1h1V9.0012z M9.0009,7.0012h-1v-1h1V7.0012
	z M9.0009,5.0012h-1v-1h1V5.0012z M6.0009,1.2507C6.00129,1.11263,5.88967,1.00039,5.7516,1C5.75133,1,5.75107,1,5.7508,1H3.25
	C3.11193,1,3,1.11193,3,1.25V2H2.25C2.11193,2,2,2.11193,2,2.25V3H1.25C1.11193,3,1,3.11193,1,3.25v6.5014
	c0,0.13807,0.11193,0.25,0.25,0.25H4V6.0009h2V1.25L6.0009,1.2507z M3,9.0013H2v-1h1V9.0013z M3,7.0013H2v-1h1V7.0013z M3,5.0013H2
	v-1h1V5.0013z M5,5.0013H4v-1h1V5.0013z M5,3.0013H4V2h1v1V3.0013z"/>
</svg>

<svg xmlns="http://www.w3.org/2000/svg" viewBox="0 0 23 23" height="23" width="23"><title>city-11.svg</title><rect fill="none" x="0" y="0" width="23" height="23"></rect><rect x="0" y="0" width="23" height="23" rx="11.5" ry="11.5" fill="rgba(17,34,51,0.88)"></rect><path fill="#fff" transform="translate(6 6)" d="M9.75,3H9V1.25A.25.25,0,0,0,8.75,1h-.5A.25.25,0,0,0,8,1.25V3H7.25A.25.25,0,0,0,7,3.25V7H5.251A.251.251,0,0,0,5,7.251v2.5A.251.251,0,0,0,5.251,10h4.5A.25.25,0,0,0,10,9.75V3.25A.25.25,0,0,0,9.75,3ZM6,8H7V9H6ZM9,9H8V8H9ZM9,7H8V6H9ZM9,5H8V4H9ZM6,1.25A.25.25,0,0,0,5.75,1H3.25A.25.25,0,0,0,3,1.25V2H2.25A.25.25,0,0,0,2,2.25V3H1.25A.25.25,0,0,0,1,3.25v6.5a.25.25,0,0,0,.25.25H4V6H6ZM3,9H2V8H3ZM3,7H2V6H3ZM3,5H2V4H3ZM5,5H4V4H5ZM5,3H4V2H5Z"></path></svg>
